X:1
T:Title
%%score ( 1 2 ) { 3 | 4 }
L:1/8
Q:1/4=108
M:4/4
K:Db
V:1 treble nm="Grand Piano, Soprano"
V:2 treble 
V:3 bass nm="Choir Pad, The Armies of God"
V:4 bass 
V:1
 A2 A2 G2 C2 | B2 B2- B/ z/ A F2 | d2 z2 z4 | [Gc]2 [Fd]6 | A2 A2 G2 C2 | B2 B2- B/ z/ A F2 | %6
w: By~George~Crawford~Hugg * * *||||||
 d2 z2 z4 | [Gc]2 [Fd]6 | z4 z2 .=A2 | c=A [FB]4 [DF]2 | [DF]2 [DF]2 [FB]2 =AB | c=A [FB]6 | %12
w: ||||||
 A2 A2 G2 C2 | B2 B2- B/ z/ A F2 | d-[Dd] [Ed]2 [Ec]2 [GB]2 | [Gc]2 [Fd]6 | A>A [Ge]4- [Ge][Gc] | %17
w: |||||
 [GB][Gc] [Fd]2 [Fd]2 [FA]2 | A>A [Ge]4- [Ge][Gc] | [GB][Gc] [Fd]6 | [DF]2 [CG]2 [DA]2 [DB]2 | %21
w: ||||
 [Ac]2 [Ad]2 [Ae]2 [Af]2 | [Ge]2 d2- [Fd]2 c2- | [Gc]2 [Fd]6- | [Fd]2 z2 z4 |] %25
w: ||||
V:2
 x8 | x8 | FD [Ed]2 [Ec]2 [GB]2 | x8 | x8 | x8 | FD [Ed]2 [Ec]2 [GB]2 | x8 | %8
 [DF]2 [DF]2 [FB]2 F-[FB] | F2 z2 z4 | z4 z2 F2 | F2 z2 z4 | x8 | x8 | .F2 z2 z4 | x8 | x8 | x8 | %18
 x8 | x8 | x8 | x8 | z2 F2 z2 E2 | x8 | x8 |] %25
V:3
 A,2 A,2 G,2 C,2 | B,2 B,2- B,/ z/ A, F,2 | A,2 z2 z2 A,2 | A,2 A,6 | A,2 A,2 G,2 C,2 | %5
 B,2 B,2- B,/ z/ A, F,2 | A,2 z2 z2 A,2 | A,2 A,6 | A,2 B,2[K:treble] D2 CD | E2 D4[K:bass] B,2 | %10
 B,2 B,2 D2 C[K:treble]D | E2 D6 | A,2 A,2[K:bass] G,2 C,2 | B,2 B,2- B,/ z/ A, F,2 | %14
 A,2 z2 z2 A,2 | A,2 A,6 | z4 C>C CA, | A,A, A,2 A,2 D2 | z4[K:treble] C>C CA, | %19
 A,2[K:bass] A,2 A,2 A,2 | A,2 A,2[K:treble] D2 D2 | E2 D2 C2 D2 | B,2 A,2 A,2 A,2 | A,2 A,6- | %24
 A,2 z2 z4 |] %25
V:4
 z8 | z8 | D,F, A,2 A,2 A,,2 | A,,2 D,6 | z8 | z8 | D,F, A,2 A,2 A,,2 | A,,2 D,6 | %8
 D,2 B,,2 B,,2 F,2 | F,2 B,,4 B,,2 | B,,2 B,,2 B,,2 F,2 | F,2 B,,6 | z8 | z8 | D,F, A,2 A,2 A,,2 | %15
 A,,2 D,6 | z4 A,>A, .A,2 | A,,A,, D,2 D,2 D,2 | z4 A,>A, .A,2 | A,,2 D,2 D,2 D,2 | %20
 D,2 E,2 F,2 G,2 | E,2 F,2 A,2 z2 | G,2 z2 z2 A,,2 | A,,2 D,6- | D,2 z2 z4 |] %25

